svgs/thin/square-pen.svg

<svg xmlns="http://www.w3.org/2000/svg" viewBox="0 0 448 512"><!--! Font Awesome Pro 6.5.1 by @fontawesome - https://fontawesome.com License - https://fontawesome.com/license (Commercial License) Copyright 2023 Fonticons, Inc. --><path d="M64 48C37.5 48 16 69.5 16 96V416c0 26.5 21.5 48 48 48H384c26.5 0 48-21.5 48-48V96c0-26.5-21.5-48-48-48H64zM0 96C0 60.7 28.7 32 64 32H384c35.3 0 64 28.7 64 64V416c0 35.3-28.7 64-64 64H64c-35.3 0-64-28.7-64-64V96zM100.7 379.2c-4-4-5.6-9.7-4.2-15.2l15-60.1c1.4-5.6 4.3-10.8 8.4-14.9L275.4 133.5c15.6-15.6 40.9-15.6 56.6 0l14.4 14.4c15.6 15.6 15.6 40.9 0 56.6L190.9 359.9c-4.1 4.1-9.2 7-14.9 8.4l-60.1 15c-5.5 1.4-11.2-.2-15.2-4.2zM335 193.1c9.4-9.4 9.4-24.6 0-33.9l-14.4-14.4c-9.4-9.4-24.6-9.4-33.9 0l-25.3 25.3 48.3 48.3L335 193.1zM179.6 348.6L298.4 229.7l-48.3-48.3L131.2 300.3c-2.1 2.1-3.5 4.6-4.2 7.4l-10.6 42.5L112 367.9l17.6-4.4 42.5-10.6c2.8-.7 5.4-2.2 7.4-4.2z"/></svg>

<svg xmlns="http://www.w3.org/2000/svg" viewBox="0 0 448 512"><!--! Font Awesome Pro 6.1.1 by @fontawesome - https://fontawesome.com License - https://fontawesome.com/license (Commercial License) Copyright 2022 Fonticons, Inc. --><path d="M100.7 379.2C96.71 375.2 95.12 369.4 96.48 363.1L111.5 303.8C112.9 298.2 115.8 293.1 119.9 288.1L275.4 133.5C291 117.9 316.3 117.9 331.1 133.5L346.3 147.9C361.1 163.5 361.1 188.8 346.3 204.5L190.9 359.9C186.8 364 181.6 366.9 176 368.3L172.1 352.8C174.9 352.1 177.5 350.7 179.6 348.6L298.4 229.7L250.1 181.4L131.2 300.3C129.2 302.3 127.7 304.9 127 307.7L112 367.9L172.1 352.8L176 368.3L115.9 383.4C110.4 384.7 104.7 383.1 100.7 379.2L100.7 379.2zM335 159.2L320.6 144.8C311.3 135.4 296.1 135.4 286.7 144.8L261.4 170.1L309.7 218.4L335 193.1C344.4 183.8 344.4 168.6 335 159.2V159.2zM0 96C0 60.65 28.65 32 64 32H384C419.3 32 448 60.65 448 96V416C448 451.3 419.3 480 384 480H64C28.65 480 0 451.3 0 416V96zM16 96V416C16 442.5 37.49 464 64 464H384C410.5 464 432 442.5 432 416V96C432 69.49 410.5 48 384 48H64C37.49 48 16 69.49 16 96z"/></svg>
